X:18044
T:Sir Roger de Coverley
R:Slipjig
C:Trad. Playford 1685
O:England
Z:Paul Hardy's Session Tunebook 2022 (see www.paulhardy.net). Creative Commons cc by-nc-sa licenced.
M:9/8
L:1/8
Q:3/8=110
K:G
"G"G2G "C"G2e "G"dBG|"D"A2A ABG FED|"G"G2G "C"G2e "D"def|"G"g2G "C"GAG "D"FED:|
|:"G"dBd "C"ece "G"dBG|"D"A2A ABG FED|"G"dBd "C"ece "G"dBG|"Em"g2G "C"GAG "D"FED:|
|:"G"gag "D"f2e "G"dBG|"Am"E2A "D"A2G FED|"G"gag "D"f2e def|"G"g2G "C"GAG "D"FED:|"_Out""G"G3|]

